X:1
T:Title
%%score { 1 | 2 }
L:1/8
Q:1/4=106
M:3/4
K:Db
V:1 treble nm="Grand Piano"
V:2 bass 
V:1
 [FA]2 [GB]2 [FA]2 | [FA]3 [EG] [DF]2 | [Fd]2 [Ac]2 [GB]2 | [FA]3 [EG] F2 | E2 =G2 B2 | [A,CA]6 | %6
w: Fannie~Birdsall * *||||||
 [Gc]2 [GB]2 [GA]2 | [Fd]3 [FA] [FA]2 | [CEG]2 [_C=DF]2 [=CEG]2 | [GB]3 [FA] [FA]2 | %10
w: ||||
 [GB]2 [GB]2 [Gc]2 | [Fd]3 [FA] [FA]2 | [B,EG]2 [A,DF]2[K:bass] [G,CE]2 | [F,D]6 |] %14
w: ||||
V:2
 [D,D]2 [D,D]2 [D,D]2 | [D,D]3 [D,A,] [D,A,]2 | [D,A,]2 [D,B,]2 [D,C]2 | [D,D]3 [D,A,] [D,A,D]2 | %4
 [E,C]2 [E,B,D]2 [E,=G,D]2 | G,,6 | [A,,A,]2 [A,,A,]2 [C,A,]2 | [D,A,]3 [D,D] [D,D]2 | %8
 A,,2 A,,2 A,,2 | [D,D]3 [D,D] [D,D]2 | [G,D]2 [G,D]2 [E,A,]2 | [D,A,]3 [D,D] [D,D]2 | %12
 G,,2 A,,2 A,,2 | D,6 |] %14

